X:3034
T:Chums
R:reel
C:Dougie MacDonald and Jerry Holland
O:20th century Cape Breton
D:An Coisir, Maire O'Keeffe
B:Cape Breton Fiddler Dougie MacDonald:Fiddle Tunes, 1993
N:Bookings,Mechanicals etc.
N:..... Dougie MacDonald <dougie@cranfordpub.com>
N:More tunes and information <http://www.cranfordpub.com/dougie>
Z:This abc transcription is for personal use only,
Z:provided this notice remains attached.
Z:Used by permission of the composers.
Z:Paul Stewart Cranford <psc@cranfordpub.com>
Q:333
L:1/8
M:C|
K:D
B|Ad d/d/d fdAc|dBAG FDAF|Ee e/e/e geBd|ecdB AFGE|!
Dd d/d/d fdAc|dBAG FDAF|GABG FAdB|AFGE FDD:|!
|:g|f2 df g2 bg|afdf ecA=c|B2 GB Adfd|ecdB cAAg|!
f2 df g2 bg|afdf ecA=c|B2 GB AcdB|AFGE FDD:|]!


